src/pos-icons/alpha-b-circle-outline.svg

<svg height="24" viewBox="0 0 24 24" width="24" xmlns="http://www.w3.org/2000/svg"><path d="m15 10.5c0 .8-.7 1.5-1.5 1.5.8 0 1.5.7 1.5 1.5v1.5a2 2 0 0 1 -2 2h-4v-10h4a2 2 0 0 1 2 2zm-2 4.5v-2h-2v2zm0-4v-2h-2v2zm-1-9a10 10 0 0 1 10 10 10 10 0 0 1 -10 10 10 10 0 0 1 -10-10 10 10 0 0 1 10-10m0 2a8 8 0 0 0 -8 8 8 8 0 0 0 8 8 8 8 0 0 0 8-8 8 8 0 0 0 -8-8z"/></svg>

<?xml version="1.0" encoding="UTF-8"?><!DOCTYPE svg PUBLIC "-//W3C//DTD SVG 1.1//EN" "http://www.w3.org/Graphics/SVG/1.1/DTD/svg11.dtd"><svg xmlns="http://www.w3.org/2000/svg" xmlns:xlink="http://www.w3.org/1999/xlink" version="1.1" id="mdi-alpha-b-circle-outline" width="24" height="24" viewBox="0 0 24 24"><path d="M15,10.5C15,11.3 14.3,12 13.5,12C14.3,12 15,12.7 15,13.5V15A2,2 0 0,1 13,17H9V7H13A2,2 0 0,1 15,9V10.5M13,15V13H11V15H13M13,11V9H11V11H13M12,2A10,10 0 0,1 22,12A10,10 0 0,1 12,22A10,10 0 0,1 2,12A10,10 0 0,1 12,2M12,4A8,8 0 0,0 4,12A8,8 0 0,0 12,20A8,8 0 0,0 20,12A8,8 0 0,0 12,4Z" /></svg>
